assets/svg/icon_profile_help.svg

<svg width="24" height="24" viewBox="0 0 24 24" fill="none" xmlns="http://www.w3.org/2000/svg">
<path d="M9.99434 17.9031C9.91251 17.7909 9.86538 17.7542 9.83078 17.7341C9.79798 17.715 9.74194 17.6916 9.59737 17.6755C9.44265 17.6584 9.23968 17.6543 8.91925 17.6488C8.00317 17.633 7.33409 17.579 6.74664 17.3357C5.71845 16.9098 4.90156 16.0929 4.47567 15.0647C4.30456 14.6517 4.22886 14.205 4.19224 13.6682C4.15625 13.1409 4.15625 12.4879 4.15625 11.6553V11.6548V10.876C4.15624 9.70589 4.15624 8.78858 4.22592 8.05576C4.29694 7.30879 4.4442 6.69716 4.7746 6.15799C5.1206 5.59337 5.59532 5.11865 6.15994 4.77265C6.69912 4.44224 7.31075 4.29499 8.05771 4.22397C8.79054 4.15429 9.70784 4.15429 10.8779 4.1543H13.096C13.3983 4.1543 13.6433 4.39935 13.6433 4.70163C13.6433 5.00391 13.3983 5.24896 13.096 5.24896H10.9067C9.70164 5.24896 8.8363 5.24954 8.16132 5.31371C7.49449 5.37712 7.07018 5.49871 6.7319 5.706C6.31458 5.96175 5.9637 6.31262 5.70796 6.72995C5.50066 7.06822 5.37907 7.49254 5.31567 8.15937C5.25149 8.83435 5.25091 9.69968 5.25091 10.9047V11.6345C5.25091 12.4921 5.25121 13.1078 5.28437 13.5937C5.31718 14.0747 5.38035 14.3884 5.487 14.6458C5.80179 15.4058 6.40559 16.0096 7.16555 16.3244C7.54185 16.4803 8.02191 16.5385 8.9381 16.5543L9.99434 17.9031ZM8.93848 16.5326C8.93847 16.5326 8.93846 16.5326 8.93844 16.5326C8.02225 16.5167 7.54597 16.4584 7.17389 16.3043C6.41926 15.9916 5.81971 15.3921 5.50714 14.6375C5.40177 14.3831 5.33885 14.0721 5.30611 13.5922C5.27302 13.1073 5.27271 12.4924 5.27271 11.6345V10.9047C5.27271 9.69926 5.2733 8.83514 5.33736 8.16143C5.40061 7.49619 5.5217 7.07561 5.72654 6.74134C5.98048 6.32694 6.32889 5.97853 6.74329 5.72458C7.07756 5.51974 7.49815 5.39866 8.16339 5.33541C8.83709 5.27135 9.70121 5.27075 10.9067 5.27075H13.096C13.4103 5.27075 13.6651 5.01594 13.6651 4.70163C13.6651 4.38731 13.4103 4.13251 13.096 4.13251H10.8779L10.8771 4.13251C9.7078 4.1325 8.78956 4.13249 8.05565 4.20227C7.30709 4.27345 6.69173 4.42121 6.14856 4.75407C5.58101 5.10187 5.10382 5.57905 4.75602 6.1466C4.42317 6.68977 4.2754 7.30513 4.20423 8.05369C4.13445 8.78761 4.13445 9.70585 4.13446 10.8751L4.13446 10.876V11.6548V11.6561C4.13446 12.4881 4.13446 13.1416 4.1705 13.6697C4.2072 14.2076 4.28315 14.6569 4.45553 15.0731C4.88363 16.1066 5.70477 16.9277 6.7383 17.3559C7.32994 17.6009 8.00278 17.6548 8.91887 17.6706C9.23973 17.6761 9.4415 17.6802 9.59498 17.6972C9.59497 17.6972 9.59497 17.6972 9.59496 17.6972L8.93848 16.5326ZM14.4053 17.6755L14.4077 17.6972L14.4053 17.6755ZM11.2906 17.872L11.2719 17.883L15.0642 16.5326L15.0409 16.5329L15.0409 16.5329L15.0355 16.533C14.7476 16.538 14.4939 16.5424 14.2824 16.5658C14.0534 16.5912 13.8278 16.6426 13.6106 16.769C13.3952 16.8943 13.2403 17.0614 13.106 17.2455C12.9822 17.4154 12.8553 17.63 12.7123 17.8716L12.7121 17.8719L12.3046 18.5604C12.1724 18.7838 11.8303 18.7838 11.698 18.5604L11.2906 17.872ZM15.4896 6.89095C15.4896 5.99614 16.215 5.27075 17.1098 5.27075C18.0045 5.27075 18.73 5.99614 18.73 6.89095C18.73 7.78577 18.0045 8.51116 17.1098 8.51116C16.215 8.51116 15.4896 7.78577 15.4896 6.89095ZM17.1098 4.13251C15.5863 4.13251 14.3513 5.3675 14.3513 6.89095C14.3513 8.41441 15.5863 9.6494 17.1098 9.6494C18.6332 9.6494 19.8682 8.41441 19.8682 6.89095C19.8682 5.3675 18.6332 4.13251 17.1098 4.13251Z" fill="#0E0E0E" stroke="#0E0E0E" stroke-width="0.0435838"/>
<path d="M8.42188 10.9824H12.6895H8.42188Z" fill="#0E0E0E"/>
<path d="M8.42188 8.41992H9.93332H8.42188Z" fill="#0E0E0E"/>
<path d="M8.42188 13.5449H9.93332H8.42188Z" fill="#0E0E0E"/>
<path d="M8.42188 10.9824H12.6895M8.42188 8.41992H9.93332M8.42188 13.5449H9.93332" stroke="#0E0E0E" stroke-width="1.17676" stroke-linecap="round" stroke-linejoin="round"/>
</svg>

<svg xmlns="http://www.w3.org/2000/svg" width="24" height="24" fill="none"><path fill="#0E0E0E" stroke="#0E0E0E" stroke-width=".044" d="M9.994 17.903a.6.6 0 0 0-.163-.169.6.6 0 0 0-.234-.059 8 8 0 0 0-.678-.026c-.916-.016-1.585-.07-2.172-.313a4.2 4.2 0 0 1-2.271-2.271c-.171-.413-.247-.86-.284-1.397-.036-.527-.036-1.18-.036-2.013v-.779c0-1.17 0-2.087.07-2.82.07-.747.218-1.359.549-1.898.346-.565.82-1.04 1.385-1.385.54-.33 1.15-.478 1.898-.549.733-.07 1.65-.07 2.82-.07h2.218a.547.547 0 1 1 0 1.095h-2.19c-1.204 0-2.07 0-2.745.065-.667.063-1.09.185-1.43.392A3.1 3.1 0 0 0 5.709 6.73c-.207.338-.329.763-.392 1.43-.065.674-.065 1.54-.065 2.745v.73c0 .857 0 1.473.033 1.959.033.48.096.794.203 1.052.315.76.919 1.364 1.679 1.678.376.156.856.214 1.772.23zm-1.056-1.37c-.916-.016-1.392-.075-1.764-.229a3.08 3.08 0 0 1-1.667-1.666c-.105-.255-.168-.566-.2-1.046-.034-.485-.034-1.1-.034-1.958v-.73c0-1.205 0-2.069.064-2.743.064-.665.185-1.085.39-1.42a3.1 3.1 0 0 1 1.016-1.016c.335-.205.755-.326 1.42-.39.674-.064 1.538-.064 2.744-.064h2.189a.57.57 0 0 0 0-1.138h-2.218c-1.17 0-2.088 0-2.822.07-.749.07-1.364.218-1.907.551a4.2 4.2 0 0 0-1.393 1.393c-.333.543-.48 1.158-.552 1.907-.07.734-.07 1.652-.07 2.821v.781c0 .832 0 1.486.036 2.014.037.538.113.987.286 1.403a4.22 4.22 0 0 0 2.282 2.283c.592.245 1.265.299 2.18.315.322.005.524.01.677.026zm5.467 1.142.003.022zm-3.114.197-.02.011 3.793-1.35h-.028c-.288.005-.542.01-.754.033a1.7 1.7 0 0 0-.671.203c-.216.125-.37.292-.505.477-.124.17-.25.384-.394.626l-.407.688a.358.358 0 0 1-.607 0zM15.49 6.891a1.62 1.62 0 1 1 3.24 0 1.62 1.62 0 0 1-3.24 0Zm1.62-2.758a2.758 2.758 0 1 0 0 5.516 2.758 2.758 0 0 0 0-5.516Z"/><path fill="#0E0E0E" d="M8.422 10.982h4.268zM8.422 8.42h1.511zM8.422 13.545h1.511z"/><path stroke="#0E0E0E" stroke-linecap="round" stroke-linejoin="round" stroke-width="1.177" d="M8.422 10.982h4.268M8.422 8.42h1.511m-1.511 5.125h1.511"/></svg>
